X: 7
T:Jota de Riveira
M:3/4
L:1/8
Q:270
C:E. Otero
R:Jota
B:Leccións de Gaita. OTERO COVELO
K:C
GAGE |: c2EG c2 | EGcB AG | A3GF2- | F2 FGFD |
B2 DFB2| DFBA GF | G3FE2- | E2 GAGE | c2EG c2|
EGcB AG | A6- | A2 FGAB | c2 GA B2- | BAGF ED | C6- |1 C2 GAGE 
:|2 C4 D2 |: F4 G2 | A2B2 A2 | G3F E2- | E6 | c3 GE2| c2B2G2 |
A3GF2- |1 F4 D2 :|2 F2 G2 A2 | B3 AG2- | G2 F2 A2 | G3 FE2- | E6|
c3GE2 | c2B2G2 | A3GF2- | F2 G2 A2 | B3 AG2- | G2 F2 A2 |
G3 F E2- | E6- | E2 F2 G2 | A2B2c2| B2 A4 | c4 G2- | G6| c4 G2|
E2F2G2| A4 A2- | A6- | A2 F2G2| A2B2c2| B2 A4 |c4 G2- | G6 |:
c4 G2 | E2F2G2 | A4 A2- | A2 B2 c2 | B3AG2- | G2 A2 B2 |1 A4 G2- | G6 :|
2 
c6- | c2 ||

